frontend/public/images/providers/whoisxmlapi.svg

<?xml version="1.0" encoding="UTF-8"?>
<svg xmlns="http://www.w3.org/2000/svg" viewBox="0 0 81 52" fill="none">
  <path
    fill="#3498FB"
    d="M15.1946 50.8083c-.2588.0004-.5151-.0509-.7533-.151-.2383-.1-.4536-.2465-.6331-.4309-.0867-.1-10.01931-11.6245-13.7778836-32.4315-.0577541-.3182-.03271525-.6457.07276175-.9517.10547705-.3061.28792845-.5805.53019885-.7977C6.30182 11.0259 12.7667 6.96233 19.7692 4.01762 31.8898-.980626 43.6565-1.31265 54.7481 3.00726c.7221.24634 7.7771 2.82401 14.4675 9.56094 6.3654 6.4263 13.554 17.9473 11.6476 36.4836-.0256.2492-.1006.491-.2207.7115-.1201.2205-.2829.4155-.4792.5738-.1963.1583-.4222.2768-.6649.3488-.2426.072-.4972.096-.7492.0707-.252-.0253-.4965-.0995-.7195-.2182-.223-.1188-.4202-.2798-.5803-.4739-.1601-.1941-.28-.4175-.3528-.6574-.0727-.2399-.0971-.4917-.0715-.7409 1.4009-13.6309-2.1122-24.8377-10.4453-33.3026-6.2824-6.36559-13.0738-8.74332-13.1424-8.76474l-.0794-.03214C43.2233 2.6074 32.4169 2.93586 21.2423 7.53781c-6.264 2.63669-12.07348 6.22379-17.21872 10.63199C7.68467 37.0703 16.3716 47.331 16.6352 47.6345c.2474.2748.409.6146.4655.9783.0564.3637.0052.7358-.1475 1.0713-.1527.3356-.4003.6203-.713.8198-.3127.1994-.6771.3052-1.0492.3044h.0036Z"
  />
  <path
    fill="#28283D"
    d="M39.7803 51.4359c-5.5606-.3195-10.7648-2.8041-14.4676-6.9074-3.7029-4.1032-5.6011-9.4888-5.2771-14.9721.324-5.4833 2.8437-10.6151 7.0047-14.2665 4.1611-3.6514 9.6226-5.52318 15.1832-5.20368.488.0287.9795.0718 1.4565.1329.298.0376.5685.1904.7522.4247.1837.2343.2655.531.2273.8242-.0381.2938-.193 0.5606-.4306.7417-.2377.1812-.5386.2619-.8366.2243-.4297-.0539-.8703-.097-1.3036-.1185-4.1915-.2398-8.3431.9163-11.7883 3.2827-3.4452 2.3664-5.984 5.8057-7.2087 9.7658-1.2248 3.9601-1.0646 8.2112.455 12.0707 1.5196 3.8595 4.3104 7.1034 7.9243 9.2111 3.6138 2.1076 7.841 2.9565 12.0029 2.4105 4.1619-.5461 8.017-2.4554 10.9462-5.4215 2.9293-2.966 4.7628-6.8167 5.2062-10.9338.4434-4.117-.5292-8.2615-2.7614-11.7681-.0791-.1242-.1327-.2626-.1576-.4073-.0249-.1447-.0206-.2927.0125-.4357.0331-.1431.0945-.2783.1807-.3979.0861-.1197.1953-.2214.3212-.2995.126-.078.2664-.1308.4131-.1553.1467-.0246.2968-.0204.4419.0123.1451.0326.2822.0931.4035.1781.1213.085.2245.1927.3036.3169 2.0508 3.2197 3.1629 6.9341 3.2142 10.7358.0514 3.8018-.9598 7.5441-2.9229 10.8165-1.963 3.2725-4.8019 5.9488-8.2055 7.7352-3.4036 1.7864-7.2403 2.6143-11.0894 2.3926v.0108Z"
  />
  <path
    fill="#28283D"
    d="M40.1448 44.8151c-3.8039-.2175-7.3643-1.9127-9.8977-4.7126-2.5334-2.7998-3.8324-6.475-3.6113-10.2171.2212-3.742 1.9444-7.2444 4.7906-9.7366 2.8462-2.4921 6.5822-3.77 10.3862-3.5525.1563.0091.3093.0485.4502.1158.1408.0673.2668.1613.3708.2765.104.1152.1838.2495.235.395.0513.1456.0728.2997.0635.4535-.0093.1538-.0493.3043-.1177.4428-.0685.1386-.164.2626-.2811.3648-.1171.1022-.2536.1808-.4016.2311-.148.0504-.3046.0716-.4609.0625-2.636-.1462-5.2473.5687-7.4275 2.0337-2.1802 1.465-3.8071 3.5978-4.6274 6.0665-.8204 2.4687-.7883 5.1349.0913 7.5838.8796 2.4489 2.5574 4.5431 4.7722 5.9568 2.2149 1.4138 4.8427 2.0677 7.4745 1.86 2.6318-.2076 5.12-1.2652 7.0776-3.0081 1.9575-1.7429 3.2745-4.0734 3.7462-6.6289.4717-2.5555.0714-5.1926-1.1384-7.5012-.0779-.1372-.127-.2884-.1444-.4446-.0174-.1562-.0027-.3142.0432-.4647.046-.1506.1222-.2904.2241-.4114.102-.121.2277-.2206.3695-.2929.1418-.0723.2969-.1158.4562-.1279.1593-.0121.3194.0073.4709.0572.1515.0499.2912.1292.4109.2333.1196.1042.2168.2309.2858.3725 1.1628 2.2171 1.7084 4.6975 1.5813 7.1892-.127 2.4916-.9221 4.9057-2.3045 6.9973-1.3824 2.0915-3.3028 3.7859-5.5663 4.9111-2.2635 1.1252-4.7894 1.641-7.3211 1.4951Z"
  />
  <path
    fill="#3498FB"
    d="M27.4176 46.5644c.0391-.6568.2753-1.2875.6787-1.8123.4034-.5247.9559-.92 1.5877-1.1358.6318-.2158 1.3145-.2425 1.9617-.0767.6472.1658 1.2298.5167 1.6744 1.0083.4445.4916.7308 1.1018.8227 1.7535.0919.6517-.0146 1.3155-.3062 1.9076-.2916.5921-.7551 1.0859-1.3319 1.4188-.5769.333-1.2411.4902-1.9088.4518-.4433-.0255-.8772-.1366-1.2768-.3271-.3997-.1905-.7573-.4565-1.0524-.7829-.2952-.3264-.5221-.7068-.6678-1.1195-.1457-.4126-.2073-.8495-.1813-1.2856Z"
  />
  <path
    fill="#3498FB"
    d="M27.4176 22.2047c.0391-.6568.2753-1.2874.6787-1.8122.4034-.5248.9559-.9201 1.5877-1.1359.6318-.2158 1.3145-.2425 1.9617-.0767.6472.1658 1.2298.5167 1.6744 1.0083.4445.4916.7308 1.1018.8227 1.7535.0919.6517-.0146 1.3155-.3062 1.9076-.2916.5921-.7551 1.0859-1.3319 1.4188-.5769.333-1.2411.4902-1.9088.4518-.4433-.0255-.8772-.1366-1.2768-.3271-.3997-.1905-.7573-.4565-1.0524-.7829-.2952-.3264-.5221-.7068-.6678-1.1195-.1457-.4126-.2073-.8495-.1813-1.2856v.0001Z"
  />
  <path
    fill="#3498FB"
    d="M48.4176 36.8209c.0391-.6568.2753-1.2874.6787-1.8122.4034-.5248.9559-.9201 1.5877-1.1359.6318-.2158 1.3145-.2425 1.9617-.0767.6472.1659 1.2298.5168 1.6744 1.0084.4445.4916.7308 1.1018.8227 1.7535.0919.6517-.0146 1.3155-.3062 1.9076-.2916.5921-.7551 1.0859-1.3319 1.4188-.5769.333-1.2411.4902-1.9088.4518-.4433-.0255-.8772-.1366-1.2768-.3271-.3997-.1905-.7573-.4565-1.0524-.7829-.2952-.3264-.5221-.7068-.6678-1.1195-.1457-.4126-.2073-.8495-.1813-1.2856Z"
  />
</svg>

<svg width="300" height="52" viewBox="0 0 300 52" fill="none" xmlns="http://www.w3.org/2000/svg">
<path d="M15.1946 50.8083C14.9358 50.8087 14.6795 50.7574 14.4413 50.6574C14.203 50.5573 13.9877 50.4108 13.8082 50.2264C13.7215 50.1264 3.78889 38.6019 0.0303164 17.7949C-0.0274377 17.4767 -0.00239885 17.1492 0.103079 16.8432C0.208556 16.5371 0.391007 16.2627 0.633277 16.0455C6.30182 11.0259 12.7667 6.96233 19.7692 4.01762C31.8898 -0.980626 43.6565 -1.31265 54.7481 3.00726C55.4702 3.2536 62.5252 5.83127 69.2156 12.5682C75.581 18.9945 82.7696 30.5155 80.8632 49.0518C80.8376 49.301 80.7626 49.5428 80.6425 49.7633C80.5224 49.9838 80.3596 50.1788 80.1633 50.3371C79.967 50.4954 79.7411 50.6139 79.4984 50.6859C79.2558 50.7579 79.0012 50.7819 78.7492 50.7566C78.4972 50.7313 78.2527 50.6571 78.0297 50.5384C77.8067 50.4196 77.6095 50.2586 77.4494 50.0645C77.2893 49.8704 77.1694 49.647 77.0967 49.4071C77.0239 49.1672 76.9996 48.9154 77.0252 48.6662C78.4261 35.0353 74.913 23.8285 66.5799 15.3636C60.2975 8.99801 53.5061 6.62028 53.4375 6.59886L53.3581 6.56672C43.2233 2.6074 32.4169 2.93586 21.2423 7.53781C14.9783 10.1745 9.16882 13.7616 4.02358 18.1698C7.68467 37.0703 16.3716 47.331 16.6352 47.6345C16.8826 47.9093 17.0442 48.2491 17.1007 48.6128C17.1571 48.9765 17.1059 49.3486 16.9532 49.6841C16.8005 50.0197 16.5529 50.3044 16.2402 50.5039C15.9275 50.7033 15.5631 50.8091 15.191 50.8083H15.1946Z" fill="#3498FB"/>
<path d="M39.7803 51.4359C34.2197 51.1164 29.0155 48.6318 25.3127 44.5285C21.6098 40.4253 19.7116 35.0397 20.0356 29.5564C20.3596 24.0731 22.8793 18.9413 27.0403 15.2899C31.2014 11.6385 36.6629 9.76672 42.2235 10.0862C42.7115 10.1149 43.203 10.158 43.68 10.2191C43.978 10.2567 44.2485 10.4095 44.4322 10.6438C44.6159 10.8781 44.6977 11.1748 44.6595 11.4686C44.6214 11.7624 44.4665 12.0292 44.2288 12.2103C43.9912 12.3915 43.6903 12.4721 43.3924 12.4345C42.9627 12.3806 42.5221 12.3375 42.0888 12.316C37.8973 12.0762 33.7457 13.2323 30.3005 15.5987C26.8553 17.9651 24.3165 21.4045 23.0918 25.3646C21.867 29.3247 22.0272 33.5758 23.5468 37.4353C25.0664 41.2948 27.8572 44.5388 31.4711 46.6464C35.0849 48.754 39.3121 49.6029 43.474 49.0569C47.6359 48.5108 51.491 46.6015 54.4203 43.6354C57.3495 40.6694 59.183 36.8187 59.6264 32.7016C60.0698 28.5846 59.0972 24.4401 56.865 20.9335C56.7859 20.8093 56.7323 20.6709 56.7074 20.5262C56.6825 20.3815 56.6868 20.2335 56.7199 20.0904C56.753 19.9474 56.8144 19.8122 56.9005 19.6926C56.9867 19.5729 57.0958 19.4712 57.2218 19.3931C57.3478 19.3151 57.4882 19.2623 57.6349 19.2377C57.7816 19.2132 57.9317 19.2174 58.0768 19.25C58.2218 19.2827 58.359 19.3432 58.4803 19.4282C58.6016 19.5131 58.7048 19.6208 58.7839 19.745C60.8347 22.9647 61.9468 26.6791 61.9981 30.4809C62.0495 34.2826 61.0383 38.0249 59.0752 41.2974C57.1122 44.5698 54.2733 47.2461 50.8697 49.0326C47.4661 50.819 43.6294 51.6468 39.7803 51.4251V51.4359Z" fill="#28283D"/>
<path d="M40.1448 44.8151C36.3409 44.5976 32.7805 42.9024 30.2471 40.1025C27.7137 37.3027 26.4147 33.6275 26.6358 29.8854C26.857 26.1434 28.5802 22.641 31.4264 20.1489C34.2726 17.6567 38.0086 16.3788 41.8126 16.5964C41.9689 16.6055 42.1219 16.6449 42.2628 16.7122C42.4036 16.7795 42.5296 16.8735 42.6336 16.9887C42.7376 17.1039 42.8174 17.2382 42.8686 17.3837C42.9199 17.5293 42.9414 17.6834 42.9321 17.8372C42.9228 17.991 42.8828 18.1415 42.8144 18.28C42.7459 18.4186 42.6504 18.5426 42.5333 18.6448C42.4162 18.7471 42.2797 18.8257 42.1317 18.8761C41.9837 18.9264 41.8271 18.9477 41.6707 18.9385C39.0347 18.7923 36.4234 19.5072 34.2432 20.9722C32.063 22.4371 30.4361 24.5699 29.6158 27.0386C28.7954 29.5073 28.8275 32.1735 29.7071 34.6224C30.5867 37.0713 32.2645 39.1655 34.4793 40.5792C36.6942 41.993 39.322 42.6469 41.9538 42.4393C44.5856 42.2316 47.0738 41.1741 49.0314 39.4312C50.9889 37.6883 52.3059 35.3578 52.7775 32.8023C53.2492 30.2468 52.8489 27.6097 51.6391 25.3011C51.5612 25.1639 51.5121 25.0127 51.4947 24.8565C51.4773 24.7003 51.492 24.5423 51.5379 24.3917C51.5839 24.2412 51.6601 24.1013 51.762 23.9804C51.864 23.8594 51.9896 23.7598 52.1314 23.6875C52.2733 23.6152 52.4284 23.5717 52.5877 23.5595C52.747 23.5474 52.9071 23.5668 53.0586 23.6167C53.2101 23.6666 53.3498 23.7459 53.4695 23.85C53.5892 23.954 53.6864 24.0807 53.7554 24.2224C54.9182 26.4395 55.4638 28.9199 55.3367 31.4115C55.2097 33.9032 54.4146 36.3173 53.0322 38.4089C51.6498 40.5004 49.7294 42.1948 47.4659 43.32C45.2024 44.4452 42.6765 44.961 40.1448 44.8151V44.8151Z" fill="#28283D"/>
<path d="M27.4176 46.5644C27.4567 45.9076 27.6929 45.2769 28.0963 44.7521C28.4997 44.2274 29.0522 43.8321 29.684 43.6162C30.3158 43.4004 30.9985 43.3737 31.6457 43.5395C32.2929 43.7053 32.8756 44.0562 33.3201 44.5478C33.7646 45.0394 34.0509 45.6496 34.1429 46.3012C34.2348 46.9529 34.1283 47.6168 33.8367 48.2089C33.5451 48.801 33.0816 49.2947 32.5048 49.6277C31.9279 49.9606 31.2637 50.1179 30.596 50.0794C30.1527 50.0539 29.7188 49.9428 29.3192 49.7523C28.9195 49.5619 28.5619 49.2959 28.2668 48.9694C27.9716 48.643 27.7447 48.2626 27.599 47.85C27.4533 47.4373 27.3917 47.0005 27.4176 46.5644Z" fill="#3498FB"/>
<path d="M27.4176 22.2047C27.4567 21.5479 27.6929 20.9173 28.0963 20.3925C28.4997 19.8677 29.0522 19.4724 29.684 19.2566C30.3158 19.0407 30.9985 19.014 31.6457 19.1798C32.2929 19.3456 32.8756 19.6965 33.3201 20.1881C33.7646 20.6797 34.0509 21.2899 34.1429 21.9416C34.2348 22.5933 34.1283 23.2571 33.8367 23.8492C33.5451 24.4413 33.0816 24.9351 32.5048 25.268C31.9279 25.601 31.2637 25.7582 30.596 25.7198C30.1527 25.6943 29.7188 25.5832 29.3192 25.3927C28.9195 25.2022 28.5619 24.9362 28.2668 24.6098C27.9716 24.2834 27.7447 23.903 27.599 23.4903C27.4533 23.0777 27.3917 22.6408 27.4176 22.2047V22.2047Z" fill="#3498FB"/>
<path d="M48.4176 36.8209C48.4567 36.1641 48.6929 35.5335 49.0963 35.0087C49.4997 34.4839 50.0522 34.0886 50.684 33.8728C51.3158 33.6569 51.9985 33.6302 52.6457 33.796C53.2929 33.9619 53.8756 34.3127 54.3201 34.8043C54.7646 35.2959 55.0509 35.9061 55.1429 36.5578C55.2348 37.2095 55.1283 37.8733 54.8367 38.4654C54.5451 39.0575 54.0816 39.5513 53.5048 39.8843C52.9279 40.2172 52.2637 40.3744 51.596 40.336C51.1527 40.3105 50.7188 40.1994 50.3192 40.0089C49.9195 39.8184 49.5619 39.5524 49.2668 39.226C48.9716 38.8996 48.7447 38.5192 48.599 38.1065C48.4533 37.6939 48.3917 37.257 48.4176 36.8209Z" fill="#3498FB"/>
<path d="M43.8398 36.1151C43.5191 36.1278 43.2036 36.0315 42.9451 35.8419C42.7389 35.6887 42.5775 35.4834 42.4776 35.2471C42.409 35.0703 42.3123 34.773 42.1833 34.3511L41.0186 30.2042L39.8095 34.3551C39.6845 34.7569 39.5878 35.0623 39.5153 35.2431C39.4159 35.4808 39.2561 35.6885 39.0518 35.8459C38.7933 36.039 38.4757 36.137 38.153 36.1231C37.8989 36.1318 37.6466 36.0765 37.4195 35.9624C37.2206 35.8531 37.0539 35.6938 36.9359 35.5003C36.8181 35.3091 36.7285 35.1021 36.6699 34.8855C36.6094 34.6766 36.553 34.4837 36.5087 34.3069L34.9731 28.3879C34.8878 28.1058 34.8378 27.8143 34.824 27.52C34.8237 27.3684 34.8555 27.2185 34.9173 27.08C34.9791 26.9415 35.0695 26.8176 35.1827 26.7163C35.4134 26.5029 35.7184 26.3876 36.0331 26.3949C36.2201 26.3792 36.4079 26.4147 36.5762 26.4975C36.7445 26.5804 36.887 26.7074 36.9883 26.865C37.1506 27.1787 37.266 27.5145 37.3308 27.8615L38.2538 31.7392L39.2654 28.1669C39.3433 27.8713 39.4375 27.5802 39.5475 27.295C39.6559 27.0469 39.8266 26.831 40.0432 26.6681C40.317 26.4715 40.6492 26.3724 40.9863 26.3868C41.3275 26.3704 41.6633 26.4758 41.9335 26.6842C42.1355 26.8446 42.2935 27.0533 42.3929 27.2909C42.4655 27.4758 42.5582 27.7611 42.675 28.171L43.6987 31.7472L44.6459 27.8535C44.6932 27.6295 44.7524 27.4082 44.8232 27.1905C44.897 26.9845 45.0201 26.7997 45.1819 26.652C45.3985 26.4633 45.6806 26.3667 45.9678 26.3828C46.2791 26.3765 46.5808 26.4903 46.8102 26.7003C46.925 26.8006 47.0171 26.9242 47.0803 27.0627C47.1435 27.2013 47.1765 27.3517 47.1769 27.5039C47.1611 27.798 47.1111 28.0893 47.0278 28.3719L45.4842 34.2747C45.3754 34.6766 45.2867 34.986 45.2101 35.1869C45.1195 35.4384 44.9621 35.6606 44.7547 35.8298C44.4938 36.031 44.1692 36.1322 43.8398 36.1151Z" fill="#28283D"/>
<path d="M46.7623 11.1108C47.0753 10.0677 48.1886 9.47025 49.2037 9.87999C52.0714 11.0377 54.6334 12.7534 56.7086 14.905C57.4853 15.7102 57.2931 16.9913 56.3787 17.6384L46.3551 24.7318C44.8272 25.813 42.7864 24.3633 43.3222 22.5774L46.7623 11.1108Z" fill="#3498FB"/>
<path d="M104.303 37.2773C103.755 37.2773 103.322 37.2217 103.003 37.1103C102.684 36.9867 102.5 36.8135 102.449 36.5908L97.0765 15.4204C97.0255 15.2844 97 15.1174 97 14.9195C97 14.6473 97.1721 14.4371 97.5162 14.2886C97.873 14.1278 98.4083 14.0474 99.1221 14.0474H100.001C101.327 14.0474 102.085 14.3938 102.277 15.0865L104.819 25.6995C104.857 25.885 105.01 26.5839 105.278 27.7961L105.871 30.4494C106.024 29.5464 106.317 28.2909 106.75 26.6829L107.018 25.6995L109.828 14.7525C109.879 14.5051 110.057 14.3257 110.363 14.2144C110.682 14.1031 111.122 14.0474 111.682 14.0474H112.982C113.543 14.0474 113.977 14.1031 114.282 14.2144C114.601 14.3257 114.786 14.5051 114.837 14.7525L117.532 25.6995C117.864 27.0601 118.253 28.7176 118.699 30.672C118.75 30.4494 118.928 29.6701 119.234 28.3342L119.846 25.6995L122.484 15.0865C122.675 14.3938 123.433 14.0474 124.759 14.0474H125.141C125.842 14.0474 126.365 14.1278 126.709 14.2886C127.066 14.4371 127.244 14.6473 127.244 14.9195C127.244 15.0061 127.238 15.0926 127.225 15.1792C127.212 15.2534 127.2 15.3338 127.187 15.4204L121.643 36.5908C121.579 36.8135 121.375 36.9867 121.031 37.1103C120.687 37.2217 120.266 37.2773 119.769 37.2773H117.284C116.787 37.2773 116.366 37.2217 116.022 37.1103C115.678 36.9867 115.481 36.8135 115.43 36.5908L112.638 25.18L112.103 22.9349L111.51 25.18L108.624 36.5908C108.56 36.8135 108.356 36.9867 108.012 37.1103C107.668 37.2217 107.247 37.2773 106.75 37.2773H104.303Z" fill="#28283D"/>
<path d="M131.216 37.2773C129.852 37.2773 129.171 36.931 129.171 36.2383V15.0865C129.171 14.7277 129.336 14.4618 129.668 14.2886C129.999 14.1031 130.515 14.0103 131.216 14.0103H132.153C133.517 14.0103 134.199 14.369 134.199 15.0865V21.933C134.759 21.2774 135.454 20.7455 136.282 20.3373C137.124 19.9167 138.022 19.7065 138.978 19.7065C140.686 19.7065 141.967 20.1456 142.821 21.0238C143.675 21.8897 144.102 23.2256 144.102 25.0315V36.2383C144.102 36.931 143.426 37.2773 142.075 37.2773H141.138C139.762 37.2773 139.074 36.931 139.074 36.2383V25.7737C139.074 24.4131 138.347 23.7327 136.894 23.7327C136.282 23.7327 135.741 23.9306 135.269 24.3265C134.81 24.7099 134.453 25.149 134.199 25.6438V36.2383C134.199 36.931 133.517 37.2773 132.153 37.2773H131.216Z" fill="#28283D"/>
<path d="M154.557 37.5C151.867 37.5 149.815 36.7331 148.401 35.1993C146.999 33.6654 146.298 31.4575 146.298 28.5754C146.298 25.7057 146.999 23.5101 148.401 21.9886C149.815 20.4672 151.867 19.7065 154.557 19.7065C157.246 19.7065 159.285 20.4672 160.674 21.9886C162.076 23.4977 162.777 25.6933 162.777 28.5754C162.777 31.4575 162.076 33.6654 160.674 35.1993C159.285 36.7331 157.246 37.5 154.557 37.5ZM154.557 33.6221C155.627 33.6221 156.411 33.2016 156.908 32.3605C157.418 31.5193 157.673 30.2576 157.673 28.5754C157.673 26.9055 157.418 25.65 156.908 24.8089C156.411 23.9678 155.627 23.5472 154.557 23.5472C152.441 23.5472 151.383 25.2233 151.383 28.5754C151.383 30.2453 151.638 31.507 152.148 32.3605C152.67 33.2016 153.473 33.6221 154.557 33.6221Z" fill="#28283D"/>
<path d="M167.478 18.787C166.764 18.787 166.241 18.7004 165.91 18.5272C165.591 18.3541 165.432 18.0881 165.432 17.7294V15.0761C165.432 14.7174 165.598 14.4515 165.929 14.2783C166.261 14.0928 166.777 14 167.478 14H168.414C169.115 14 169.632 14.0928 169.963 14.2783C170.294 14.4515 170.46 14.7174 170.46 15.0761V17.7294C170.46 18.0881 170.294 18.3541 169.963 18.5272C169.644 18.7004 169.128 18.787 168.414 18.787H167.478ZM167.478 37.5556C166.114 37.5556 165.432 37.2093 165.432 36.5166V21.2279C165.432 20.8816 165.598 20.6218 165.929 20.4486C166.261 20.2755 166.777 20.1889 167.478 20.1889H168.414C169.115 20.1889 169.632 20.2755 169.963 20.4486C170.294 20.6218 170.46 20.8816 170.46 21.2279V36.5166C170.46 37.2093 169.778 37.5556 168.414 37.5556H167.478Z" fill="#28283D"/>
<path d="M178.447 37.5C177.567 37.5 176.694 37.4072 175.828 37.2217C174.961 37.0361 174.241 36.7702 173.667 36.4238C173.106 36.0775 172.826 35.6817 172.826 35.2364C172.826 34.9642 172.928 34.6241 173.132 34.2159C173.336 33.8077 173.578 33.4552 173.858 33.1583C174.152 32.8491 174.406 32.6944 174.623 32.6944C174.738 32.6944 174.986 32.781 175.369 32.9542C175.815 33.1521 176.242 33.3129 176.65 33.4366C177.057 33.5603 177.523 33.6221 178.045 33.6221C178.695 33.6221 179.186 33.5046 179.517 33.2696C179.849 33.0346 180.014 32.6883 180.014 32.2306C180.014 31.8842 179.912 31.5997 179.708 31.3771C179.517 31.1421 179.269 30.9503 178.963 30.8019C178.657 30.6535 178.224 30.4741 177.663 30.2638L177.108 30.0597C176.382 29.7876 175.745 29.4784 175.197 29.132C174.649 28.7857 174.183 28.2847 173.801 27.6291C173.419 26.9612 173.228 26.12 173.228 25.1057C173.228 23.9801 173.476 23.0153 173.973 22.2113C174.483 21.3949 175.203 20.7764 176.133 20.3559C177.064 19.9229 178.16 19.7065 179.422 19.7065C180.148 19.7065 180.907 19.7745 181.697 19.9106C182.487 20.0466 183.15 20.2569 183.685 20.5414C184.233 20.8259 184.507 21.1846 184.507 21.6176C184.507 21.8649 184.424 22.1989 184.258 22.6195C184.106 23.04 183.914 23.4111 183.685 23.7327C183.456 24.0543 183.239 24.2151 183.035 24.2151C182.971 24.2151 182.793 24.1595 182.5 24.0482C182.105 23.8874 181.722 23.7637 181.353 23.6771C180.996 23.5781 180.582 23.5286 180.11 23.5286C178.912 23.5286 178.313 23.9121 178.313 24.679C178.313 25.0253 178.421 25.3222 178.638 25.5696C178.867 25.817 179.148 26.0211 179.479 26.1819C179.81 26.3427 180.276 26.5344 180.875 26.7571C181.563 27.0292 181.99 27.2024 182.156 27.2766C183.048 27.7095 183.761 28.2847 184.297 29.0021C184.845 29.7072 185.119 30.6535 185.119 31.8409C185.119 32.9666 184.858 33.9561 184.335 34.8096C183.812 35.6631 183.048 36.3249 182.041 36.7949C181.034 37.265 179.836 37.5 178.447 37.5Z" fill="#28283D"/>
<path d="M254.933 37.2773C254.424 37.2773 254.054 37.234 253.825 37.1475C253.595 37.0485 253.48 36.9063 253.48 36.7207C253.48 36.6341 253.512 36.4857 253.576 36.2754L261.625 14.5855C261.752 14.2268 262.205 14.0474 262.982 14.0474H263.976C264.754 14.0474 265.206 14.2268 265.333 14.5855L273.382 36.294C273.446 36.43 273.478 36.5723 273.478 36.7207C273.478 37.0918 273 37.2773 272.044 37.2773H271.757C270.967 37.2773 270.508 37.1042 270.381 36.7578L268.392 31.34H258.413L256.463 36.7578C256.348 37.1042 255.896 37.2773 255.105 37.2773H254.933ZM267.475 28.8352L263.919 19.02C263.817 18.7478 263.734 18.4386 263.67 18.0922C263.606 17.7459 263.549 17.4119 263.498 17.0903H263.422C263.269 17.9191 263.097 18.5623 262.905 19.02L259.35 28.8352H267.475Z" fill="#28283D"/>
<path d="M277.947 37.2773C277.475 37.2773 277.131 37.2217 276.914 37.1103C276.71 36.9867 276.608 36.8011 276.608 36.5537V15.1236C276.608 14.7648 276.685 14.5113 276.838 14.3628C277.003 14.2144 277.265 14.1402 277.622 14.1402H284.504C286.492 14.1402 288.251 14.604 289.78 15.5318C291.323 16.4471 292.094 18.1355 292.094 20.5971C292.094 22.4278 291.654 23.8502 290.775 24.8645C289.895 25.8665 288.907 26.5406 287.811 26.887C286.715 27.2209 285.728 27.3879 284.848 27.3879H279.572V36.5537C279.572 36.8011 279.463 36.9867 279.247 37.1103C279.03 37.2217 278.692 37.2773 278.233 37.2773H277.947ZM284.886 24.8831C285.46 24.8831 286.059 24.7656 286.683 24.5306C287.308 24.2832 287.85 23.8441 288.308 23.2132C288.767 22.57 288.997 21.698 288.997 20.5971C288.997 19.1251 288.544 18.0984 287.639 17.5171C286.747 16.9357 285.67 16.645 284.408 16.645H279.572V24.8831H284.886Z" fill="#28283D"/>
<path d="M297.557 37.2773C296.639 37.2773 296.18 37.0361 296.18 36.5537V14.7896C296.18 14.2948 296.639 14.0474 297.557 14.0474H297.824C298.729 14.0474 299.182 14.2948 299.182 14.7896V36.5537C299.182 37.0361 298.729 37.2773 297.824 37.2773H297.557Z" fill="#28283D"/>
<path d="M189.109 37.2299C187.694 37.2299 186.987 37.0196 186.987 36.5991C186.987 36.3888 187.095 36.1167 187.312 35.7827L194.328 25.1325L188.096 15.4658C187.879 15.0823 187.771 14.804 187.771 14.6308C187.771 14.4453 187.949 14.2969 188.306 14.1855C188.676 14.0618 189.217 14 189.931 14H191.327C192.423 14 193.098 14.2103 193.353 14.6308L197.234 20.7723L201.306 14.6308C201.497 14.3835 201.752 14.2165 202.071 14.1299C202.402 14.0433 202.842 14 203.39 14H204.709C206.136 14 206.85 14.2103 206.85 14.6308C206.85 14.8659 206.742 15.1442 206.525 15.4658L200.102 25.2068L206.888 35.7827C207.092 36.0919 207.194 36.3641 207.194 36.5991C207.194 37.0196 206.481 37.2299 205.053 37.2299H203.734C203.186 37.2299 202.746 37.1866 202.415 37.1C202.083 37.0135 201.848 36.8465 201.707 36.5991L197.177 29.5114L192.474 36.5991C192.295 36.8836 192.053 37.0629 191.747 37.1372C191.454 37.199 191.008 37.2299 190.409 37.2299H189.109Z" fill="#3498FB"/>
<path d="M211.701 37.2299C210.338 37.2299 209.656 36.8836 209.656 36.1909V15.0761C209.656 14.7174 209.822 14.4515 210.153 14.2783C210.484 14.0928 211.001 14 211.701 14H213.499C214.582 14 215.289 14.3031 215.621 14.9092L221.337 24.7615L221.624 25.2439L221.91 24.6687L227.665 14.9092C228.009 14.3031 228.723 14 229.806 14H231.584C232.948 14 233.63 14.3587 233.63 15.0761V36.1909C233.63 36.8836 232.948 37.2299 231.584 37.2299H230.59C229.226 37.2299 228.544 36.8836 228.544 36.1909V22.5164L228.41 22.4793L223.478 31.0328C223.185 31.4534 222.732 31.6636 222.121 31.6636H221.146C220.827 31.6636 220.559 31.6142 220.343 31.5152C220.126 31.4039 219.941 31.2431 219.788 31.0328L214.837 22.4793L214.703 22.5164V36.1909C214.703 36.8836 214.027 37.2299 212.677 37.2299H211.701Z" fill="#3498FB"/>
<path d="M238.368 37.1743C237.897 37.1743 237.553 37.0691 237.336 36.8588C237.119 36.6486 237.011 36.3146 237.011 35.8569V15.0761C237.011 14.7174 237.177 14.4515 237.508 14.2783C237.839 14.0928 238.356 14 239.057 14H240.204C240.905 14 241.421 14.0928 241.752 14.2783C242.084 14.4515 242.249 14.7174 242.249 15.0761V32.8511H249.82C250.177 32.8511 250.432 32.981 250.585 33.2408C250.75 33.5005 250.833 33.9149 250.833 34.4839V35.5229C250.833 36.1043 250.75 36.5249 250.585 36.7846C250.432 37.0444 250.177 37.1743 249.82 37.1743H238.368Z" fill="#3498FB"/>
</svg>
